X:1
T:MINNIE HYND
M:6/8
L:1/8
Q:80
C:P/M Donald Mac Lean
S:Jig
K:HP
|: {g}A{d}ce{gef}ece | \
aga{ef}ec{d}A | \
{g}A{d}ce{gef}ece |
{gde}dcd{gBd}B2e | \
{g}A{d}ce{gef}ece | \
aga{ef}ec{d}A |
{g}c/2d3/2c{g}B/2{d}G3/2{d}B | \
{g}A{d}ce{ag}a3 :: \
{gfg}f3{gef}e3 |
{g}A{d}ce{gef}ece | \
{gfg}f3{gef}e3 | \
{g}A{d}ce{gde}dcd |
{gfg}f3{gef}e3 | \
{g}A{d}ce{gef}ece | \
{g}c/2d3/2c{g}B/2{d}G3/2{d}B |
{g}A{d}ce{ag}a3 :|
